dist/assets/images/brands/brandsIco/wheel (Traced).svg

<svg width="28" height="28" viewBox="0 0 28 28" fill="none" xmlns="http://www.w3.org/2000/svg">
<path opacity="0.6" fill-rule="evenodd" clip-rule="evenodd" d="M12.9306 0.012804C9.33811 0.381556 6.48354 1.69802 4.08666 4.09152C1.86505 6.30994 0.512326 9.05424 0.0708641 12.2387C-0.0236214 12.9202 -0.0236214 15.0596 0.0708641 15.7412C0.648957 19.911 2.8715 23.4447 6.35776 25.7368C8.91769 27.4198 12.1659 28.2278 15.2324 27.9443C18.6001 27.6329 21.5992 26.2203 23.9592 23.8338C26.139 21.6295 27.4148 19.0635 27.901 15.9054C28.0322 15.0533 28.0332 12.9632 27.9029 12.1125C27.6738 10.6175 27.2598 9.23035 26.6878 8.04058C26.4 7.44214 26.3158 7.31156 26.1984 7.28211C25.9639 7.22339 25.7872 7.29985 25.6907 7.5019C25.6022 7.68731 25.6025 7.6889 25.9099 8.33501C27.1067 10.8509 27.4718 13.6579 26.9612 16.4183C26.0846 21.1577 22.6099 25.0875 18.0095 26.5421C14.7339 27.5778 11.167 27.3058 8.13506 25.7893C4.12667 23.7842 1.50919 20.0927 0.894214 15.577C0.803017 14.9073 0.803017 13.0726 0.894214 12.4028C1.44255 8.37671 3.55406 5.04081 6.92933 2.86825C8.5243 1.84162 10.3791 1.17702 12.4099 0.90453C13.0872 0.813628 14.9244 0.813026 15.5887 0.90349C18.0941 1.24466 20.3023 2.1655 22.1814 3.65282L22.5537 3.94747L22.2911 3.96176C21.8663 3.98491 21.7803 4.02053 21.7024 4.20551C21.6103 4.42431 21.6809 4.64776 21.8693 4.73347C21.9531 4.77161 22.3418 4.79575 22.873 4.79575C23.6671 4.79575 23.7521 4.78622 23.8844 4.6823L24.0288 4.5689V3.61265C24.0288 2.67036 24.0268 2.65443 23.8942 2.5221C23.7228 2.35086 23.5127 2.35086 23.3412 2.5221C23.2258 2.63736 23.2067 2.70725 23.2067 3.01465C23.2067 3.21167 23.195 3.37284 23.1807 3.37284C23.1664 3.37284 22.9577 3.21402 22.717 3.01996C20.7888 1.46554 18.3356 0.429388 15.7805 0.0902977C15.3194 0.0291127 13.3055 -0.0256693 12.9306 0.012804ZM12.4647 2.53037C6.73713 3.29332 2.43525 8.20854 2.43525 13.9899C2.43525 20.3731 7.60591 25.5374 13.9971 25.5374C19.8383 25.5374 24.743 21.2142 25.4833 15.4128C25.5969 14.5231 25.5701 12.8811 25.4294 12.1018C25.1289 10.4385 24.5435 8.9531 23.6751 7.65054C23.2003 6.93843 23.0993 6.82656 22.8952 6.78727C22.7545 6.76018 22.6935 6.78087 22.58 6.89415C22.3618 7.11208 22.3968 7.27992 22.7689 7.79852C25.7953 12.0173 25.2889 17.8671 21.5762 21.5744C17.6819 25.4632 11.4758 25.7723 7.20802 22.2899C4.07817 19.7361 2.63803 15.6116 3.51037 11.6997C4.64721 6.60185 9.23475 3.06757 14.4377 3.28122C16.9405 3.384 19.1996 4.28339 21.0693 5.92149C21.2953 6.1196 21.5347 6.30786 21.6012 6.33987C21.8658 6.4675 22.2317 6.13038 22.1404 5.84312C22.097 5.70652 21.5843 5.22891 21.0237 4.80281C19.3884 3.55973 17.5135 2.79224 15.4626 2.52632C14.6706 2.42365 13.2516 2.42556 12.4647 2.53037ZM10.5191 5.85461C9.83317 6.08222 8.65495 6.85918 7.90219 7.58038C7.06525 8.38213 6.438 9.23648 5.98519 10.1913C5.81968 10.5402 5.80581 10.6119 5.80581 11.1179C5.80581 11.6257 5.81897 11.693 5.98344 12.0266C6.1974 12.4606 6.58937 12.8449 7.027 13.0497L7.34038 13.1964L9.03936 13.2129L10.7383 13.2294V13.9927V14.7561H9.54632C8.42735 14.7561 8.34755 14.7628 8.24468 14.8656C8.08146 15.0285 8.09851 15.3214 8.27948 15.4636C8.41655 15.5713 8.49229 15.5771 9.77294 15.5785L11.122 15.58L11.259 15.803C11.4163 16.0589 12.0794 16.7029 12.2794 16.7939L12.414 16.8552L12.3983 18.6695L12.3825 20.4839L12.2167 20.7517C11.9208 21.2294 11.3212 21.4733 10.7932 21.3307C10.6726 21.2982 10.352 21.1452 10.0807 20.9907C8.71393 20.2126 7.63989 19.1164 6.89442 17.7387C6.64708 17.2816 6.62801 17.2187 6.62933 16.8631C6.63108 16.4104 6.71658 16.2212 7.07375 15.8794C7.29226 15.6703 7.31835 15.6201 7.30295 15.4378C7.28091 15.1771 7.06794 14.9969 6.84718 15.0522C6.60625 15.1126 6.17729 15.5601 5.98344 15.9532C5.81897 16.2869 5.80581 16.3541 5.80581 16.862C5.80581 17.368 5.81968 17.4397 5.98519 17.7886C6.43833 18.7441 7.06525 19.5977 7.90406 20.4013C8.50983 20.9816 9.44997 21.6392 10.1367 21.9629C10.5505 22.158 10.6034 22.1691 11.1231 22.1703C11.6331 22.1715 11.6982 22.1589 12.0332 21.9943C12.4677 21.7806 12.8527 21.3892 13.0577 20.9522L13.2046 20.6393L13.2211 18.9427L13.2377 17.2462H13.9993H14.7609L14.7775 18.9427L14.794 20.6393L14.9409 20.9522C15.1461 21.3894 15.5309 21.7806 15.9656 21.9943C16.3014 22.1593 16.3649 22.1715 16.8756 22.1693C17.3747 22.1672 17.4586 22.1512 17.7981 21.9933C19.5151 21.1948 21.1676 19.5583 21.9838 17.8482C22.1828 17.4312 22.1928 17.3843 22.1928 16.862C22.1928 16.3541 22.1796 16.2869 22.0152 15.9532C21.8012 15.5193 21.4092 15.1349 20.9716 14.9301L20.6582 14.7835L18.9592 14.767L17.2603 14.7505V13.9899V13.2294L18.9592 13.2129L20.6582 13.1964L20.9716 13.0497C21.4092 12.8449 21.8012 12.4606 22.0152 12.0266C22.1796 11.693 22.1928 11.6257 22.1928 11.1179C22.1928 10.6122 22.1789 10.5401 22.0139 10.1923C21.1708 8.41453 19.5827 6.82875 17.8024 5.98683C17.4543 5.82221 17.3818 5.8082 16.8766 5.8082C16.3967 5.8082 16.2896 5.82642 16.0152 5.95487C15.5778 6.1596 15.1856 6.54401 14.9716 6.97772L14.794 7.33783L14.7775 9.03574L14.7609 10.7337H13.9993H13.2377L13.2211 9.03711L13.2046 7.34056L13.0577 7.02763C12.8538 6.5931 12.4675 6.19912 12.039 5.98842C11.7373 5.84016 11.6128 5.81148 11.2112 5.79791C10.9216 5.78806 10.6534 5.81006 10.5191 5.85461ZM11.797 6.80369C11.949 6.89755 12.1173 7.06775 12.2167 7.22815L12.3825 7.49593L12.3963 9.30631L12.4101 11.1167L12.1853 11.2536C11.9284 11.4098 11.2831 12.0713 11.1913 12.2725L11.1299 12.4069L9.31295 12.3912L7.49597 12.3755L7.22781 12.2099C7.06169 12.1073 6.89651 11.9422 6.79374 11.7763C6.65004 11.5442 6.6279 11.4567 6.6279 11.121C6.6279 10.7616 6.64714 10.6981 6.89442 10.2411C7.62953 8.8825 8.70242 7.78013 10.0356 7.01346C10.6544 6.65762 10.8435 6.59551 11.223 6.62347C11.4505 6.64022 11.6167 6.69237 11.797 6.80369ZM17.7667 6.90367C18.7344 7.42309 19.7372 8.26759 20.3667 9.09309C20.9608 9.87214 21.3963 10.7298 21.3944 11.1167C21.392 11.5978 21.1098 12.0447 20.6704 12.2633L20.3901 12.4028H18.6284H16.8668L16.8064 12.2704C16.716 12.0724 16.07 11.4099 15.815 11.2536L15.5916 11.1167L15.5902 9.36252L15.5887 7.60834L15.7313 7.32239C15.9747 6.83483 16.4221 6.58265 16.972 6.62292C17.2151 6.64077 17.3958 6.70458 17.7667 6.90367ZM14.5642 11.6088C15.5556 11.8667 16.2538 12.6256 16.4267 13.6334C16.6948 15.1964 15.2075 16.6815 13.6422 16.4138C12.5632 16.2293 11.7568 15.4239 11.5719 14.3465C11.2874 12.6878 12.931 11.1841 14.5642 11.6088ZM13.2594 12.2086C12.8176 12.3925 12.3617 12.8594 12.1994 13.2942C12.0412 13.7177 12.0408 14.2598 12.1982 14.6856C12.3621 15.1295 12.8628 15.6263 13.3142 15.7932C13.7795 15.9653 14.3964 15.9386 14.8263 15.7278C15.2122 15.5386 15.551 15.1994 15.7419 14.8112C15.8714 14.5479 15.8901 14.4442 15.8901 13.9899C15.8901 13.5417 15.8703 13.4285 15.7462 13.169C15.5618 12.783 15.2036 12.4253 14.8214 12.2454C14.3755 12.0356 13.7127 12.02 13.2594 12.2086ZM14.425 12.9801C14.6959 13.0931 14.8694 13.2598 14.9918 13.5247C15.1818 13.9359 15.0782 14.5018 14.7593 14.7945C14.3481 15.1721 13.6505 15.1721 13.2393 14.7945C12.8231 14.4125 12.801 13.6573 13.1935 13.231C13.4762 12.9239 14.0232 12.8124 14.425 12.9801ZM20.7708 15.77C20.9368 15.8725 21.1021 16.0376 21.2047 16.2033C21.3454 16.4306 21.3704 16.5257 21.3705 16.8337C21.3707 17.1422 21.3403 17.2575 21.168 17.6044C20.4372 19.0751 19.2569 20.2687 17.6987 21.1131C17.2988 21.3298 17.2261 21.3507 16.8723 21.3507C16.5362 21.3507 16.4486 21.3286 16.2161 21.1851C16.0499 21.0825 15.8847 20.9176 15.7819 20.7517L15.6161 20.4839L15.6003 18.6695L15.5846 16.8552L15.7192 16.7939C15.9206 16.7023 16.5831 16.0578 16.7396 15.8013L16.8766 15.5768L18.6896 15.5906L20.5026 15.6044L20.7708 15.77Z" fill="white"/>
</svg>

<svg width="28" height="28" fill="none" xmlns="http://www.w3.org/2000/svg"><path opacity=".6" fill-rule="evenodd" clip-rule="evenodd" d="M12.93.013C9.339.382 6.485 1.698 4.088 4.092 1.865 6.31.512 9.054.07 12.239c-.095.681-.095 2.82 0 3.502.578 4.17 2.8 7.704 6.287 9.996 2.56 1.683 5.808 2.49 8.874 2.207 3.368-.311 6.367-1.724 8.727-4.11 2.18-2.204 3.456-4.77 3.942-7.929.131-.852.132-2.942.002-3.792-.23-1.495-.643-2.883-1.215-4.072-.288-.599-.372-.73-.49-.759-.234-.059-.41.018-.507.22-.089.185-.088.187.219.833a13.165 13.165 0 011.051 8.083c-.876 4.74-4.351 8.67-8.951 10.124-3.276 1.036-6.843.764-9.875-.753-4.008-2.005-6.626-5.696-7.24-10.212-.092-.67-.092-2.504 0-3.174.548-4.026 2.66-7.362 6.034-9.535 1.595-1.026 3.45-1.691 5.48-1.963.678-.091 2.515-.092 3.18-.002 2.505.342 4.713 1.263 6.592 2.75l.373.294-.263.015c-.425.023-.51.059-.589.244-.092.218-.021.442.167.527.084.039.473.063 1.004.063.794 0 .88-.01 1.011-.114l.145-.113v-.956c0-.943-.002-.959-.135-1.09-.171-.172-.381-.172-.553 0-.115.114-.134.184-.134.492 0 .197-.012.358-.026.358a5.58 5.58 0 01-.464-.353C20.789 1.466 18.336.43 15.781.09c-.462-.06-2.476-.116-2.85-.077zm-.465 2.517c-5.728.763-10.03 5.679-10.03 11.46 0 6.383 5.17 11.547 11.562 11.547a11.565 11.565 0 0011.486-10.124c.114-.89.087-2.532-.054-3.311-.3-1.664-.885-3.149-1.754-4.451-.475-.713-.576-.824-.78-.864-.14-.027-.201-.006-.315.107-.218.218-.183.386.189.905 3.026 4.218 2.52 10.068-1.193 13.775a10.73 10.73 0 01-14.368.716c-3.13-2.554-4.57-6.678-3.698-10.59a10.736 10.736 0 0110.928-8.42c2.502.103 4.762 1.002 6.631 2.64.226.199.466.387.532.419.265.128.63-.21.54-.497-.044-.136-.557-.614-1.117-1.04a11.535 11.535 0 00-5.561-2.277c-.792-.102-2.211-.1-2.998.004zm-1.946 3.325c-.686.227-1.864 1.004-2.617 1.725-.837.802-1.464 1.656-1.917 2.611-.165.35-.18.42-.18.927 0 .508.014.575.178.909.214.434.606.818 1.044 1.023l.313.146 1.7.017 1.698.016v1.527H9.546c-1.119 0-1.198.007-1.301.11a.412.412 0 00.034.598c.138.107.213.113 1.494.114l1.349.002.137.223c.157.256.82.9 1.02.99l.135.062-.016 1.814-.015 1.815-.166.268c-.296.477-.896.721-1.424.579-.12-.033-.441-.186-.712-.34a8.164 8.164 0 01-3.187-3.252c-.247-.457-.266-.52-.265-.876.002-.453.088-.642.445-.984.218-.209.244-.259.229-.441-.022-.26-.235-.441-.456-.386-.24.06-.67.508-.864.901-.164.334-.177.401-.177.909 0 .506.014.578.18.927.452.955 1.08 1.809 1.918 2.612.606.58 1.546 1.238 2.233 1.562.413.195.466.206.986.207.51.002.575-.011.91-.176.435-.213.82-.605 1.025-1.042l.147-.313.016-1.696.017-1.697h1.522l.017 1.697.016 1.696.147.313c.205.437.59.829 1.025 1.042.335.165.399.178.91.175.499-.002.583-.018.922-.176 1.717-.798 3.37-2.435 4.186-4.145.199-.417.209-.464.209-.986 0-.508-.013-.575-.178-.909a2.284 2.284 0 00-1.043-1.023l-.314-.146-1.699-.017-1.699-.016V13.23l1.7-.017 1.698-.017.314-.146c.437-.205.83-.59 1.043-1.023.165-.334.178-.401.178-.91 0-.505-.014-.577-.18-.925-.842-1.777-2.43-3.363-4.21-4.205-.349-.165-.421-.179-.926-.179-.48 0-.587.018-.862.147-.437.205-.83.589-1.043 1.023l-.178.36-.017 1.698-.016 1.698h-1.522l-.017-1.697-.016-1.696-.147-.313a2.286 2.286 0 00-1.019-1.04c-.302-.148-.426-.177-.828-.19-.29-.01-.558.012-.692.057zm1.278.949c.152.094.32.264.42.424l.165.268.014 1.81.014 1.81-.225.138c-.257.156-.902.817-.994 1.019l-.061.134-1.817-.016-1.817-.015-.268-.166a1.418 1.418 0 01-.434-.434c-.144-.232-.166-.32-.166-.655 0-.36.02-.423.266-.88a8.193 8.193 0 013.142-3.228c.618-.355.808-.417 1.187-.39.227.017.394.07.574.18zm5.97.1c.967.52 1.97 1.364 2.6 2.19.594.778 1.03 1.636 1.027 2.023a1.298 1.298 0 01-.724 1.146l-.28.14h-3.523l-.06-.133c-.091-.198-.737-.86-.992-1.016l-.223-.137-.002-1.754-.001-1.755.142-.286c.244-.487.691-.74 1.241-.7.243.019.424.083.795.282zm-3.203 4.705a2.48 2.48 0 011.863 2.024c.268 1.563-1.22 3.049-2.785 2.78a2.495 2.495 0 01-2.07-2.066c-.285-1.66 1.359-3.163 2.992-2.738zm-1.305.6c-.441.184-.897.65-1.06 1.085a2.104 2.104 0 000 1.392c.163.444.664.94 1.115 1.107.466.172 1.082.146 1.512-.065a2.06 2.06 0 00.916-.917c.13-.263.148-.367.148-.821 0-.448-.02-.562-.144-.821a2.047 2.047 0 00-.925-.924c-.445-.21-1.108-.225-1.562-.036zm1.166.771c.27.113.444.28.567.545.19.41.086.977-.233 1.27-.41.377-1.109.377-1.52 0-.416-.383-.438-1.138-.046-1.564.283-.307.83-.419 1.232-.25zm6.346 2.79c.166.103.331.268.434.433.14.228.165.323.166.63 0 .31-.03.425-.203.771-.73 1.471-1.911 2.665-3.47 3.51-.4.216-.472.237-.826.237-.336 0-.423-.022-.656-.166a1.417 1.417 0 01-.434-.433l-.166-.268-.016-1.815-.015-1.814.134-.061c.202-.092.864-.736 1.02-.993l.138-.224 1.813.014 1.813.013.268.166z" fill="#fff"/></svg>
